src/lib/packages/icons/src/assets/filled/euro-circle.svg

<svg width="24" height="24" viewBox="0 0 24 24" fill="none" xmlns="http://www.w3.org/2000/svg">
<path d="M12 2C6.477 2 2 6.477 2 12C2 17.523 6.477 22 12 22C17.523 22 22 17.523 22 12C22 6.477 17.523 2 12 2ZM12.688 10.125C13.102 10.125 13.438 10.461 13.438 10.875C13.438 11.289 13.102 11.625 12.688 11.625H9.53799C9.52499 11.75 9.5 11.872 9.5 12C9.5 12.128 9.52499 12.25 9.53799 12.375H12.688C13.102 12.375 13.438 12.711 13.438 13.125C13.438 13.539 13.102 13.875 12.688 13.875H10.022C10.673 14.99 11.869 15.75 13.25 15.75C13.735 15.75 14.208 15.659 14.658 15.478C15.045 15.322 15.479 15.51 15.634 15.894C15.789 16.278 15.602 16.715 15.218 16.87C14.59 17.122 13.928 17.25 13.251 17.25C11.019 17.25 9.12 15.844 8.362 13.875H7.06299C6.64899 13.875 6.31299 13.539 6.31299 13.125C6.31299 12.711 6.64899 12.375 7.06299 12.375H8.03799C8.02899 12.249 8 12.128 8 12C8 11.872 8.02899 11.751 8.03799 11.625H7.06299C6.64899 11.625 6.31299 11.289 6.31299 10.875C6.31299 10.461 6.64899 10.125 7.06299 10.125H8.362C9.12 8.156 11.018 6.75 13.251 6.75C13.937 6.75 14.601 6.88104 15.225 7.13904C15.608 7.29704 15.79 7.73602 15.632 8.11902C15.474 8.50102 15.037 8.684 14.652 8.526C14.21 8.343 13.739 8.25098 13.251 8.25098C11.869 8.25098 10.673 9.01098 10.023 10.126H12.688V10.125Z" fill="currentColor"/>
</svg>

<svg xmlns="http://www.w3.org/2000/svg" width="24" height="24" fill="none"><path fill="currentColor" d="M12 2C6.477 2 2 6.477 2 12s4.477 10 10 10 10-4.477 10-10S17.523 2 12 2Zm.688 8.125a.75.75 0 0 1 0 1.5h-3.15c-.013.125-.038.247-.038.375s.025.25.038.375h3.15a.75.75 0 0 1 0 1.5h-2.666c.651 1.115 1.847 1.875 3.228 1.875.485 0 .958-.091 1.408-.272a.75.75 0 0 1 .56 1.392 5.26 5.26 0 0 1-1.967.38c-2.232 0-4.131-1.406-4.889-3.375H7.063a.75.75 0 0 1 0-1.5h.975C8.029 12.249 8 12.128 8 12s.029-.249.038-.375h-.975a.75.75 0 0 1 0-1.5h1.299c.758-1.969 2.656-3.375 4.889-3.375.686 0 1.35.131 1.974.389a.75.75 0 0 1-.573 1.387 3.641 3.641 0 0 0-1.401-.275c-1.382 0-2.578.76-3.228 1.875h2.665v-.001Z"/></svg>
